X: 36416
T: Sean's Tune
R: jig
M: 6/8
K: Dmajor
D2d cAF|ADB AFD|E2A, EFG|GFE EDC|
D2d cAF|ADB AFD|1 E3 efg|fed BAE:|2 E2A, EFG|GFE DCD ]|
B,3 B,A,B,|G3 GFD|E3EDE|A3 Adc|
B3BAB|g3gfe|cAA dAc|ABA GFD|
B,G,G, G,A,G,|B,/A,/,G,C DEF|EA,A, A,AA,|EFE EDC|
B,3B,A,B,|CB,C DEF|EA,A, A,EA,|Ez2 ED=C|
[K: Dm] B,DF BFD|CEG cGc|d3 def|edc d3|
B,DF BFD|CEG cGc|d3 dcA|d2d- dcA|
B,DF BFD|CEG cGc|d3 adg|fed cAG|
B,DF BFD|CEG cGc|d3 dcA|dz2 AG^F|

